mc/waste-theme/assets/themes/natuurpunt/information.svg

<svg xmlns="http://www.w3.org/2000/svg" viewBox="-17.5 7 40 1">
    <defs>
        <style>.cls-1{fill:#fff;}</style>
    </defs>
    <g id="Layer_2" data-name="Layer 2">
        <g id="Layer_1-2" data-name="Layer 1">
            <path class="cls-1"
                  d="M6.37,15H.28v-.74l.49,0a1.45,1.45,0,0,0,.41-.1.79.79,0,0,0,.43-.33,1.2,1.2,0,0,0,.13-.57V7.61A1.16,1.16,0,0,0,1.58,7a1.36,1.36,0,0,0-.39-.4,2,2,0,0,0-.54-.23A3.55,3.55,0,0,0,0,6.26V5.52l4.78-.26.14.15v7.67a1.05,1.05,0,0,0,.15.57.79.79,0,0,0,.41.35,2.85,2.85,0,0,0,.42.16,3.55,3.55,0,0,0,.47.09ZM5,1.78A1.65,1.65,0,0,1,4.41,3a1.92,1.92,0,0,1-1.33.52A2,2,0,0,1,1.73,3a1.64,1.64,0,0,1-.56-1.26A1.64,1.64,0,0,1,1.73.52,1.92,1.92,0,0,1,3.08,0,1.88,1.88,0,0,1,4.42.52,1.68,1.68,0,0,1,5,1.78Z"/>
        </g>
    </g>
</svg>

<?xml version="1.0" encoding="UTF-8" standalone="no"?>
<svg
   viewBox="-17.5 7 6.3699999 15.000459"
   version="1.1"
   id="svg10"
   sodipodi:docname="information.svg"
   width="6.3699999"
   height="15.000459"
   inkscape:version="1.1.1 (1:1.1+202109281949+c3084ef5ed)"
   xmlns:inkscape="http://www.inkscape.org/namespaces/inkscape"
   xmlns:sodipodi="http://sodipodi.sourceforge.net/DTD/sodipodi-0.dtd"
   xmlns="http://www.w3.org/2000/svg"
   xmlns:svg="http://www.w3.org/2000/svg">
  <sodipodi:namedview
     id="namedview12"
     pagecolor="#505050"
     bordercolor="#eeeeee"
     borderopacity="1"
     inkscape:pageshadow="0"
     inkscape:pageopacity="0"
     inkscape:pagecheckerboard="0"
     showgrid="false"
     inkscape:zoom="40.35"
     inkscape:cx="2.5030979"
     inkscape:cy="7.4969021"
     inkscape:current-layer="svg10" />
  <defs
     id="defs4">
    <style
       id="style2">.cls-1{fill:#fff;}</style>
  </defs>
  <g
     id="Layer_2"
     data-name="Layer 2"
     transform="translate(-17.5,7.0004586)">
    <g
       id="Layer_1-2"
       data-name="Layer 1">
      <path
         class="cls-1"
         d="M 6.37,15 H 0.28 v -0.74 h 0.49 a 1.45,1.45 0 0 0 0.41,-0.1 0.79,0.79 0 0 0 0.43,-0.33 1.2,1.2 0 0 0 0.13,-0.57 V 7.61 A 1.16,1.16 0 0 0 1.58,7 1.36,1.36 0 0 0 1.19,6.6 2,2 0 0 0 0.65,6.37 3.55,3.55 0 0 0 0,6.26 V 5.52 L 4.78,5.26 4.92,5.41 v 7.67 A 1.05,1.05 0 0 0 5.07,13.65 0.79,0.79 0 0 0 5.48,14 2.85,2.85 0 0 0 5.9,14.16 3.55,3.55 0 0 0 6.37,14.25 Z M 5,1.78 A 1.65,1.65 0 0 1 4.41,3 1.92,1.92 0 0 1 3.08,3.52 2,2 0 0 1 1.73,3 1.64,1.64 0 0 1 1.17,1.74 1.64,1.64 0 0 1 1.73,0.52 1.92,1.92 0 0 1 3.08,0 1.88,1.88 0 0 1 4.42,0.52 1.68,1.68 0 0 1 5,1.78 Z"
         id="path6" />
    </g>
  </g>
</svg>
